website/public/Images/svg/settings.svg

<svg width="28" height="30" viewBox="0 0 28 30" fill="none" xmlns="http://www.w3.org/2000/svg">
<path d="M13.9998 10C13.0109 10 12.0442 10.2932 11.2219 10.8427C10.3997 11.3921 9.7588 12.173 9.38037 13.0866C9.00193 14.0002 8.90291 15.0055 9.09584 15.9755C9.28876 16.9454 9.76497 17.8363 10.4642 18.5355C11.1635 19.2348 12.0544 19.711 13.0243 19.9039C13.9942 20.0969 14.9996 19.9978 15.9132 19.6194C16.8268 19.241 17.6077 18.6001 18.1571 17.7779C18.7065 16.9556 18.9998 15.9889 18.9998 15C18.9958 13.6751 18.4678 12.4057 17.5309 11.4688C16.5941 10.532 15.3246 10.004 13.9998 10ZM24.7948 15C24.7922 15.4672 24.7579 15.9337 24.6923 16.3962L27.7354 18.7787C27.8679 18.8882 27.9572 19.0412 27.9873 19.2104C28.0175 19.3796 27.9864 19.5541 27.8998 19.7025L25.021 24.6725C24.9335 24.8196 24.7969 24.9312 24.6353 24.9875C24.4736 25.0439 24.2973 25.0415 24.1373 24.9806L20.5591 23.5431C19.8141 24.1169 18.9987 24.593 18.1329 24.96L17.5979 28.7588C17.5679 28.9289 17.4798 29.0834 17.3486 29.1958C17.2174 29.3082 17.0513 29.3715 16.8785 29.375H11.121C10.9514 29.3717 10.788 29.311 10.6573 29.2028C10.5266 29.0946 10.4365 28.9454 10.4016 28.7794L9.86664 24.9806C8.99843 24.6179 8.18249 24.141 7.44039 23.5625L3.86226 25C3.70232 25.0609 3.52603 25.0634 3.36439 25.0072C3.20276 24.9509 3.06612 24.8395 2.97851 24.6925L0.0997633 19.7231C0.013112 19.5747 -0.0179313 19.4003 0.012181 19.231C0.0422933 19.0618 0.131599 18.9088 0.264138 18.7994L3.30726 16.4169C3.24236 15.9473 3.20812 15.474 3.20476 15C3.20736 14.5328 3.24161 14.0663 3.30726 13.6038L0.264138 11.2212C0.131599 11.1118 0.0422933 10.9588 0.012181 10.7896C-0.0179313 10.6204 0.013112 10.4459 0.0997633 10.2975L2.97851 5.3275C3.06603 5.18037 3.20262 5.06882 3.36426 5.01246C3.52591 4.9561 3.70225 4.95855 3.86226 5.01937L7.44039 6.45687C8.18546 5.88313 9.00082 5.40698 9.86664 5.04L10.4016 1.24125C10.4316 1.07109 10.5197 0.916616 10.6509 0.804215C10.7821 0.691815 10.9483 0.628468 11.121 0.625H16.8785C17.0481 0.628301 17.2116 0.688995 17.3422 0.797173C17.4729 0.905351 17.563 1.05462 17.5979 1.22062L18.1329 5.01937C19.0022 5.38186 19.8192 5.85878 20.5623 6.4375L24.1373 5C24.2972 4.93912 24.4735 4.93658 24.6351 4.99282C24.7968 5.04906 24.9334 5.16048 25.021 5.3075L27.8998 10.2775C27.9864 10.4259 28.0175 10.6004 27.9873 10.7696C27.9572 10.9388 27.8679 11.0918 27.7354 11.2013L24.6923 13.5837C24.7571 14.0531 24.7914 14.5262 24.7948 15Z" fill="url(#paint0_linear)"/>
<defs>
<linearGradient id="paint0_linear" x1="13.9998" y1="0.625" x2="13.9998" y2="29.375" gradientUnits="userSpaceOnUse">
<stop stop-color="#49E8E8"/>
<stop offset="1" stop-color="#1E8080"/>
</linearGradient>
</defs>
</svg>

<svg xmlns="http://www.w3.org/2000/svg" width="28" height="30" fill="none" xmlns:v="https://vecta.io/nano"><path d="M14 10a5 5 0 0 0-4.619 3.087 5 5 0 0 0 1.084 5.449 5 5 0 0 0 5.449 1.084A5 5 0 0 0 19 15c-.004-1.325-.532-2.594-1.469-3.531S15.325 10.004 14 10zm10.795 5c-.003.467-.037.934-.102 1.396l3.043 2.383c.133.11.222.262.252.432s-.001.344-.088.492l-2.879 4.97c-.088.147-.224.259-.386.315s-.338.054-.498-.007l-3.578-1.437a11.03 11.03 0 0 1-2.426 1.417l-.535 3.799c-.03.17-.118.325-.249.437s-.297.176-.47.179h-5.757a.75.75 0 0 1-.719-.596l-.535-3.799a10.58 10.58 0 0 1-2.426-1.418L3.862 25a.73.73 0 0 1-.884-.308L.1 19.723c-.087-.148-.118-.323-.088-.492s.119-.322.252-.432l3.043-2.383c-.065-.47-.099-.943-.103-1.417.003-.467.037-.934.103-1.396L.264 11.221c-.133-.109-.222-.262-.252-.432s.001-.344.088-.492l2.879-4.97a.73.73 0 0 1 .884-.308L7.44 6.457c.745-.574 1.56-1.05 2.426-1.417l.535-3.799c.03-.17.118-.325.249-.437s.297-.176.47-.179h5.757a.75.75 0 0 1 .719.596l.535 3.799a10.58 10.58 0 0 1 2.429 1.418L24.137 5c.16-.061.336-.063.498-.007s.298.168.386.315l2.879 4.97c.087.148.118.323.088.492s-.119.322-.252.432l-3.043 2.382A10.93 10.93 0 0 1 24.795 15z" fill="url(#A)"/><defs><linearGradient id="A" x1="14" y1=".625" x2="14" y2="29.375" gradientUnits="userSpaceOnUse"><stop stop-color="#49e8e8"/><stop offset="1" stop-color="#1e8080"/></linearGradient></defs></svg>
